X:82
T:Dancing Dogs. THO5.082, The
M:2/4
L:1/8
B:Thompson's Complete Collection of 200 Favourite Dances Vol.5
F:https://www.libraryofdance.org/manuals/1780c-Thompson-Compleat-5.pdf
Z:vmp. Peter Dunk 2024
Q:1/4=140
N:Dancing Dogs featured in Astley's Circus founded in 1781
K:D
A|dafd|eddA|dafd|eddA|
BdAd|BdAd|gefd|e3:|
|:A|FADd|=cABB|^GBEe|dBcA|
dAfd|eAag|faAc|d3:|
W:
W:The 1st Couple set to the 2nd Lady, Hands three round ./.
W:The same to the 2nd Gent ./:
W:Cross ove one Couple :/.
W:Right and Left :/:

